2/images/PSW-2.svg

<svg width="391" height="332" viewBox="0 0 391 332" fill="none" xmlns="http://www.w3.org/2000/svg">
<path d="M104.305 256.238C107.273 259.203 110.381 262.027 113.622 264.698C116.862 267.369 120.232 269.889 123.722 272.245C127.213 274.599 130.823 276.791 134.54 278.809C138.259 280.827 142.086 282.671 146.01 284.33C149.935 285.987 153.957 287.461 158.065 288.737" stroke="#B2B2B2" stroke-width="2" stroke-linecap="round" stroke-linejoin="round"/>
<path d="M81.7108 101.072C79.6907 104.786 77.8457 108.609 76.1858 112.531C74.5259 116.451 73.0521 120.468 71.7734 124.573C70.4958 128.678 69.4143 132.869 68.54 137.135C67.6657 141.402 67.0008 145.743 66.552 150.149C66.1044 154.555 65.875 159.028 65.875 163.551C65.875 168.077 66.1044 172.547 66.552 176.954C67.0008 181.36 67.6657 185.703 68.54 189.969C69.4143 194.236 70.4958 198.426 71.7734 202.53C73.0521 206.634 74.5259 210.653 76.1858 214.574C77.8457 218.494 79.6907 222.316 81.7108 226.031C83.7297 229.746 85.9249 233.352 88.2829 236.839" stroke="#B2B2B2" stroke-width="2" stroke-linecap="round" stroke-linejoin="round"/>
<path d="M317.978 112.53C316.318 108.609 314.473 104.787 312.453 101.071C310.433 97.3574 308.239 93.7518 305.881 90.2647C303.523 86.7776 301.002 83.4111 298.328 80.1731C295.655 76.9372 292.828 73.8309 289.859 70.8652C286.892 67.9006 283.783 65.0766 280.542 62.4053C277.302 59.7341 273.932 57.2156 270.442 54.8599C266.952 52.5041 263.341 50.3111 259.624 48.2941C255.905 46.276 252.078 44.4328 248.154 42.7745C244.229 41.1162 240.208 39.6427 236.099 38.3663C231.99 37.0899 227.796 36.0095 223.525 35.136C219.255 34.2637 214.908 33.5973 210.498 33.15C206.086 32.7028 201.611 32.4736 197.082 32.4736C192.554 32.4736 188.077 32.7028 183.667 33.15C179.257 33.5973 174.911 34.2637 170.639 35.136C166.37 36.0095 162.175 37.0899 158.066 38.3663C153.957 39.6427 149.936 41.1162 146.011 42.7745C142.087 44.4328 138.26 46.276 134.541 48.2941C130.823 50.3111 127.214 52.5041 123.723 54.8599" stroke="#B2B2B2" stroke-width="2" stroke-linecap="round" stroke-linejoin="round"/>
<path d="M327.61 176.954C328.058 172.548 328.287 168.077 328.287 163.552C328.287 159.028 328.058 154.556 327.61 150.149" stroke="#B2B2B2" stroke-width="2" stroke-linecap="round" stroke-linejoin="round"/>
<path d="M259.623 278.81C263.341 276.792 266.951 274.6 270.441 272.244C273.931 269.888 277.302 267.37 280.542 264.698C283.782 262.027 286.891 259.203 289.859 256.239C292.827 253.273 295.654 250.167 298.328 246.93C301.002 243.693 303.522 240.325 305.88 236.839C308.238 233.352 310.434 229.746 312.453 226.031C314.473 222.317 316.318 218.493 317.978 214.573" stroke="#B2B2B2" stroke-width="2" stroke-linecap="round" stroke-linejoin="round"/>
<path fill-rule="evenodd" clip-rule="evenodd" d="M292.504 163.552C292.504 110.903 249.782 68.2224 197.082 68.2224C144.381 68.2224 101.658 110.903 101.658 163.552C101.658 216.2 144.381 258.882 197.082 258.882C249.782 258.882 292.504 216.2 292.504 163.552Z" stroke="#231F20" stroke-width="2" stroke-linecap="round" stroke-linejoin="round"/>
<path fill-rule="evenodd" clip-rule="evenodd" d="M286.246 163.552C286.246 114.355 246.326 74.4739 197.081 74.4739C147.837 74.4739 107.916 114.355 107.916 163.552C107.916 212.748 147.837 252.629 197.081 252.629C246.326 252.629 286.246 212.748 286.246 163.552Z" stroke="#B2B2B2" stroke-width="2" stroke-linecap="round" stroke-linejoin="round"/>
<path d="M136.882 39.7391C135.564 39.7391 134.496 38.6719 134.496 37.3557V3.98999C134.496 2.67374 135.564 1.60657 136.882 1.60657H189.924C191.243 1.60657 192.31 2.67374 192.31 3.98999V25.6068" stroke="#B2B2B2" stroke-width="2" stroke-linecap="round" stroke-linejoin="round"/>
<path fill-rule="evenodd" clip-rule="evenodd" d="M245.122 191.868H149.041V132.944C149.041 130.498 151.026 128.516 153.473 128.516H240.689C243.137 128.516 245.122 130.498 245.122 132.944V191.868Z" stroke="#231F20" stroke-width="2" stroke-linecap="round" stroke-linejoin="round"/>
<path fill-rule="evenodd" clip-rule="evenodd" d="M254.73 191.868H139.434V194.159C139.434 196.605 141.417 198.587 143.866 198.587H250.297C252.745 198.587 254.73 196.605 254.73 194.159V191.868Z" stroke="#231F20" stroke-width="2" stroke-linecap="round" stroke-linejoin="round"/>
<path d="M197.081 149.247V168.74" stroke="black" stroke-width="2" stroke-linecap="round" stroke-linejoin="round"/>
<path fill-rule="evenodd" clip-rule="evenodd" d="M198.942 175.998C198.942 177.024 198.108 177.857 197.081 177.857C196.054 177.857 195.221 177.024 195.221 175.998C195.221 174.972 196.054 174.139 197.081 174.139C198.108 174.139 198.942 174.972 198.942 175.998Z" fill="black"/>
<mask id="mask0" mask-type="alpha" maskUnits="userSpaceOnUse" x="0" y="0" width="391" height="332">
<path fill-rule="evenodd" clip-rule="evenodd" d="M0.974609 331.487H390.223V0.5H0.974609V331.487Z" fill="white"/>
</mask>
<g mask="url(#mask0)">
<path fill-rule="evenodd" clip-rule="evenodd" d="M192.312 282.714H201.854V258.881H192.312V282.714Z" stroke="#231F20" stroke-width="2" stroke-linecap="round" stroke-linejoin="round"/>
<path d="M183.961 330.38V282.715H210.203V312.506" stroke="#231F20" stroke-width="2" stroke-linecap="round" stroke-linejoin="round"/>
<path fill-rule="evenodd" clip-rule="evenodd" d="M386.898 185.424H372.245C371.022 185.424 370.029 184.432 370.029 183.209V154.272C370.029 153.049 371.022 152.058 372.245 152.058H386.898C388.121 152.058 389.114 153.049 389.114 154.272V183.209C389.114 184.432 388.121 185.424 386.898 185.424Z" stroke="#B2B2B2" stroke-width="2" stroke-linecap="round" stroke-linejoin="round"/>
<path fill-rule="evenodd" clip-rule="evenodd" d="M49.9371 253.206C49.9371 245.308 43.529 238.906 35.6238 238.906C27.7187 238.906 21.3105 245.308 21.3105 253.206C21.3105 261.103 27.7187 267.505 35.6238 267.505C43.529 267.505 49.9371 261.103 49.9371 253.206Z" stroke="#B2B2B2" stroke-width="2" stroke-linecap="round" stroke-linejoin="round"/>
<path fill-rule="evenodd" clip-rule="evenodd" d="M333.76 30.1564C333.76 22.2589 327.352 15.8569 319.447 15.8569C311.541 15.8569 305.133 22.2589 305.133 30.1564C305.133 38.0539 311.541 44.4558 319.447 44.4558C327.352 44.4558 333.76 38.0539 333.76 30.1564Z" stroke="#B2B2B2" stroke-width="2" stroke-linecap="round" stroke-linejoin="round"/>
<path fill-rule="evenodd" clip-rule="evenodd" d="M20.2757 136.165L34.3296 111.848C35.1817 110.372 34.1158 108.527 32.4093 108.527H4.30358C2.59712 108.527 1.53113 110.372 2.38436 111.848L16.4372 136.165C17.2905 137.641 19.4224 137.641 20.2757 136.165Z" stroke="#B2B2B2" stroke-width="2" stroke-linecap="round" stroke-linejoin="round"/>
<path d="M282.318 273.741L286.553 281.069C286.98 281.806 287.767 282.26 288.62 282.26H303.757C304.609 282.26 305.397 281.806 305.823 281.069L313.392 267.973C313.818 267.236 313.818 266.327 313.392 265.59L305.823 252.492C305.397 251.755 304.609 251.3 303.757 251.3" stroke="#B2B2B2" stroke-width="2" stroke-linecap="round" stroke-linejoin="round"/>
<path d="M31.3333 277.85V305.988" stroke="#B2B2B2" stroke-width="2" stroke-linecap="round" stroke-linejoin="round"/>
<path d="M39.9154 277.85V290.931" stroke="#B2B2B2" stroke-width="2" stroke-linecap="round" stroke-linejoin="round"/>
<path d="M344.443 32.4732H351.771" stroke="#B2B2B2" stroke-width="2" stroke-linecap="round" stroke-linejoin="round"/>
<path d="M358.525 32.4732H383.802" stroke="#B2B2B2" stroke-width="2" stroke-linecap="round" stroke-linejoin="round"/>
<path d="M350.406 23.8992H365.915" stroke="#B2B2B2" stroke-width="2" stroke-linecap="round" stroke-linejoin="round"/>
</g>
</svg>

<svg width="391" height="332" fill="none" xmlns="http://www.w3.org/2000/svg"><path d="M104.3 256.24a131.67 131.67 0 0041.71 28.09c3.93 1.66 7.95 3.13 12.06 4.4M81.71 101.07a130.13 130.13 0 00-15.83 62.48 132.6 132.6 0 002.66 26.42 130.13 130.13 0 0019.74 46.87M317.98 112.53a130.6 130.6 0 00-19.65-32.36 131.79 131.79 0 00-62.23-41.8 130.57 130.57 0 00-39.02-5.9 132.97 132.97 0 00-26.44 2.67 130.7 130.7 0 00-46.92 19.72M327.61 176.95a132.46 132.46 0 000-26.8M259.62 278.81a131.15 131.15 0 0030.24-22.57 132.11 132.11 0 0022.6-30.2c2.01-3.72 3.86-7.55 5.52-11.47" stroke="#B2B2B2" stroke-width="2" stroke-linecap="round" stroke-linejoin="round"/><path clip-rule="evenodd" d="M292.5 163.55c0-52.65-42.72-95.33-95.42-95.33s-95.42 42.68-95.42 95.33 42.72 95.33 95.42 95.33 95.42-42.68 95.42-95.33z" stroke="#231F20" stroke-width="2" stroke-linecap="round" stroke-linejoin="round"/><path clip-rule="evenodd" d="M286.25 163.55c0-49.2-39.92-89.08-89.17-89.08-49.24 0-89.16 39.89-89.16 89.08 0 49.2 39.92 89.08 89.16 89.08 49.25 0 89.17-39.88 89.17-89.08z" stroke="#B2B2B2" stroke-width="2" stroke-linecap="round" stroke-linejoin="round"/><path d="M136.88 39.74a2.38 2.38 0 01-2.38-2.38V3.99a2.38 2.38 0 012.38-2.38h53.04a2.38 2.38 0 012.39 2.38v21.62" stroke="#B2B2B2" stroke-width="2" stroke-linecap="round" stroke-linejoin="round"/><path clip-rule="evenodd" d="M245.12 191.87h-96.08v-58.93a4.43 4.43 0 014.43-4.42h87.22a4.43 4.43 0 014.43 4.42v58.93z" stroke="#231F20" stroke-width="2" stroke-linecap="round" stroke-linejoin="round"/><path clip-rule="evenodd" d="M254.73 191.87h-115.3v2.29a4.43 4.43 0 004.44 4.43H250.3a4.43 4.43 0 004.43-4.43v-2.3z" stroke="#231F20" stroke-width="2" stroke-linecap="round" stroke-linejoin="round"/><path d="M197.08 149.25v19.49" stroke="#000" stroke-width="2" stroke-linecap="round" stroke-linejoin="round"/><path fill-rule="evenodd" clip-rule="evenodd" d="M198.94 176a1.86 1.86 0 11-3.72 0 1.86 1.86 0 013.72 0z" fill="#000"/><mask id="a" maskUnits="userSpaceOnUse" x="0" y="0" width="391" height="332"><path fill-rule="evenodd" clip-rule="evenodd" d="M.97 331.49h389.25V.5H.97v330.99z" fill="#fff"/></mask><g mask="url(#a)" stroke-width="2" stroke-linecap="round" stroke-linejoin="round"><path clip-rule="evenodd" d="M192.31 282.71h9.54v-23.83h-9.54v23.83z" stroke="#231F20"/><path d="M183.96 330.38v-47.67h26.24v29.8" stroke="#231F20"/><path clip-rule="evenodd" d="M386.9 185.42h-14.65c-1.23 0-2.22-.99-2.22-2.21v-28.94c0-1.22 1-2.21 2.22-2.21h14.65c1.22 0 2.21.99 2.21 2.21v28.94c0 1.22-.99 2.21-2.21 2.21zM49.94 253.2a14.3 14.3 0 10-28.62.02 14.3 14.3 0 0028.62-.01zM333.76 30.16a14.3 14.3 0 10-28.61.01 14.3 14.3 0 0028.61-.01zM20.28 136.16l14.05-24.31a2.21 2.21 0 00-1.92-3.32H4.3a2.21 2.21 0 00-1.93 3.32l14.06 24.31a2.22 2.22 0 003.84 0z" stroke="#B2B2B2"/><path d="M282.32 273.74l4.23 7.33c.43.74 1.22 1.19 2.07 1.19h15.14c.85 0 1.64-.45 2.06-1.2l7.57-13.09c.43-.73.43-1.64 0-2.38l-7.57-13.1a2.39 2.39 0 00-2.06-1.19M31.33 277.85v28.14M39.92 277.85v13.08M344.44 32.47h7.33M358.52 32.47h25.28M350.4 23.9h15.52" stroke="#B2B2B2"/></g></svg>
